media/logo.svg

<?xml version="1.0" encoding="UTF-8"?>
<svg clip-rule="evenodd" fill-rule="evenodd" stroke-linecap="round" stroke-linejoin="round" version="1.1" viewBox="0 0 476 108" xml:space="preserve" xmlns="http://www.w3.org/2000/svg">
    <g transform="translate(-19.056 -298.71)">
        <g transform="translate(4.7269 334.54)">
            <g transform="matrix(.99364 0 0 .99364 -81.408 -91.715)">
                <g transform="matrix(96.615 0 0 96.615 257.92 136.83)">
                    <path d="m0.017-0.015c0 0.017 1e-3 0.021 0.015 0.021 0.023 0 0.075-3e-3 0.105-3e-3s0.079 3e-3 0.102 3e-3c0.012 0 0.012-5e-3 0.012-0.02 0-0.012 0-0.016-0.012-0.016h-0.067c-5e-3 0-6e-3 -2e-3 -5e-3 -6e-3 5e-3 -0.044 0.036-0.262 0.039-0.278 2e-3 -8e-3 2e-3 -8e-3 0.017-8e-3h0.143c0.043 0 0.047 4e-3 0.047 0.011 0 3e-3 -7e-3 0.045-9e-3 0.058-1e-3 0.01 0.012 0.01 0.02 0.01 7e-3 0 0.015-2e-3 0.016-9e-3 2e-3 -0.013 6e-3 -0.047 0.012-0.079 7e-3 -0.038 0.014-0.068 0.014-0.078 0-8e-3 -0.01-9e-3 -0.016-9e-3 -7e-3 0-0.018 0-0.019 9e-3l-8e-3 0.043c-2e-3 9e-3 -0.024 0.011-0.044 0.011h-0.156c-0.013 0-0.012 0-0.012-4e-3 0-2e-3 0-5e-3 1e-3 -9e-3 5e-3 -0.035 0.033-0.243 0.04-0.267 0.1 0 0.214 3e-3 0.232 6e-3 -1e-3 0.012-5e-3 0.066-5e-3 0.071 0 0.011-1e-3 0.017 0.017 0.017 0.016 0 0.019-3e-3 0.019-0.013 2e-3 -0.069 9e-3 -0.117 9e-3 -0.125 0-0.014-4e-3 -0.014-0.02-0.014-9e-3 0-0.014 1e-3 -0.016 0.015-1e-3 9e-3 2e-3 0.01-0.066 0.01-0.043 0-0.156 3e-3 -0.209 3e-3 -0.035 0-0.107-3e-3 -0.114-3e-3 -9e-3 0-0.015 4e-3 -0.015 0.017 0 0.017 0.01 0.018 0.022 0.018h0.054s1e-3 3e-3 1e-3 7e-3c0 0.076-0.077 0.556-0.083 0.596h-0.042c-0.016 0-0.019 1e-3 -0.019 0.015z" fill-rule="nonzero"/>
                </g>
                <g transform="matrix(96.615 0 0 96.615 308.26 136.83)">
                    <path d="m0.022-0.138c0 0.077 0.047 0.149 0.143 0.149 0.128 0 0.232-0.125 0.232-0.249 0-0.063-0.033-0.162-0.141-0.162-0.135 0-0.234 0.115-0.234 0.262zm0.068-8e-3c0-0.087 0.078-0.225 0.155-0.225 0.07 0 0.083 0.059 0.083 0.093 0 0.09-0.066 0.259-0.161 0.259-0.075 0-0.077-0.084-0.077-0.127z" fill-rule="nonzero"/>
                </g>
                <g transform="matrix(96.615 0 0 96.615 348.74 136.83)">
                    <path d="m0.012-0.287c0 0.012 0.013 0.02 0.018 0.02 4e-3 0 0.07-0.064 0.092-0.064 7e-3 0 0.01 5e-3 0.01 0.015 0 0.066-0.047 0.257-0.06 0.311-1e-3 6e-3 1e-3 0.014 8e-3 0.014s0.028-2e-3 0.048-4e-3c0.013-1e-3 0.016-0.022 0.018-0.028 6e-3 -0.021 0.023-0.078 0.044-0.111 0.049-0.079 0.141-0.207 0.176-0.207 0.012 0 0.019 0.012 0.019 0.026 0 0.06-0.08 0.214-0.08 0.273 0 0.025 0.013 0.044 0.035 0.044 0.075 0 0.163-0.106 0.163-0.115 0-5e-3 -0.012-0.016-0.015-0.016-2e-3 0-0.062 0.076-0.09 0.076-0.013 0-0.016-0.01-0.016-0.017 0-0.026 0.077-0.219 0.077-0.272 0-0.018-7e-3 -0.047-0.054-0.047-0.078 0-0.157 0.102-0.242 0.25 0.021-0.079 0.048-0.17 0.048-0.226 0-0.018-0.014-0.024-0.024-0.024-0.061 0-0.175 0.096-0.175 0.102z" fill-rule="nonzero"/>
                </g>
                <g transform="matrix(96.615 0 0 96.615 398.5 136.83)">
                    <path d="m0.032-0.346c0 6e-3 5e-3 7e-3 0.011 7e-3h0.055c7e-3 0 6e-3 2e-3 6e-3 8e-3 0 7e-3 -0.053 0.281-0.053 0.299 0 0.024 0.013 0.037 0.038 0.037 0.062 0 0.183-0.142 0.183-0.148 0-4e-3 -0.014-0.016-0.017-0.016-2e-3 0-0.087 0.092-0.109 0.092-0.016 0-0.016-0.01-0.016-0.018s0.025-0.16 0.041-0.246c1e-3 -7e-3 3e-3 -8e-3 8e-3 -8e-3h0.078c8e-3 0 0.011-8e-3 0.013-0.025 1e-3 -6e-3 0-0.011-9e-3 -0.011h-0.076c-8e-3 0-8e-3 -3e-3 -7e-3 -7e-3 3e-3 -0.018 0.024-0.108 0.024-0.112 0-7e-3 -0.013-8e-3 -0.024-8e-3h-7e-3c-9e-3 0-0.015 0-0.021 1e-3 -0.016 2e-3 -0.019 7e-3 -0.021 0.02-3e-3 0.023-0.012 0.078-0.016 0.1-2e-3 7e-3 -2e-3 6e-3 -8e-3 6e-3h-0.061c-8e-3 0-0.011 7e-3 -0.011 0.01 0 4e-3 -1e-3 0.016-1e-3 0.019z" fill-rule="nonzero"/>
                </g>
                <g transform="matrix(96.615 0 0 96.615 425.94 136.83)">
                    <path d="m0.017-0.061c0 0.034 0.07 0.069 0.131 0.069 0.073 0 0.134-0.054 0.134-0.115 0-0.112-0.145-0.119-0.145-0.21 0-0.047 0.037-0.06 0.066-0.06 0.015 0 0.021 0.011 0.029 0.025 0.01 0.018 0.025 0.037 0.051 0.037 0.011 0 0.021-7e-3 0.021-0.02 0-0.012-0.01-0.067-0.1-0.067-0.072 0-0.134 0.054-0.134 0.119 0 0.086 0.144 0.131 0.144 0.189 0 0.043-0.031 0.07-0.068 0.07-0.023 0-0.033-0.016-0.057-0.04-0.013-0.013-0.022-0.025-0.045-0.025-9e-3 0-0.027 0.01-0.027 0.028z" fill-rule="nonzero"/>
                </g>
                <g transform="matrix(96.615 0 0 96.615 458.4 136.83)">
                    <path d="m0.022-6e-3c0 6e-3 3e-3 0.011 0.011 0.011 1e-3 0 0.057-1e-3 0.06-0.011l0.021-0.084c8e-3 -0.033 0.032-0.07 0.054-0.107 0.041-0.068 0.092-0.146 0.138-0.146 0.02 0 0.031 0.015 0.031 0.036 0 0.051-0.073 0.234-0.073 0.269 0 0.025 0.02 0.041 0.044 0.041 0.078 0 0.158-0.117 0.158-0.125 0-5e-3 -0.01-0.013-0.015-0.013s-0.071 0.087-0.095 0.087c-0.012 0-0.018-9e-3 -0.018-0.019 0-0.027 0.067-0.202 0.067-0.268 0-0.036-0.029-0.051-0.062-0.051-0.06 0-0.097 0.034-0.126 0.069-0.049 0.059-0.087 0.132-0.105 0.169 0.029-0.142 0.083-0.42 0.088-0.512 0-9e-3 0-0.018-9e-3 -0.018-0.025 0-0.116 0.02-0.156 0.034-7e-3 3e-3 -9e-3 0.015-9e-3 0.023 0 5e-3 1e-3 0.013 6e-3 0.013 6e-3 0 0.066-0.026 0.084-0.026 3e-3 0 5e-3 7e-3 4e-3 0.015-0.034 0.349-0.098 0.601-0.098 0.613z" fill-rule="nonzero"/>
                </g>
                <g transform="matrix(96.615 0 0 96.615 503.62 136.83)">
                    <path d="m0.022-0.282c0 7e-3 8e-3 0.016 0.015 0.016 9e-3 0 0.058-0.059 0.082-0.059 7e-3 0 9e-3 5e-3 9e-3 0.015 0 0.06-0.071 0.246-0.071 0.298 0 0.018 0.017 0.021 0.027 0.021 0.033 0 0.154-0.099 0.154-0.116 0-5e-3 -9e-3 -0.015-0.015-0.015-7e-3 0-0.062 0.064-0.079 0.064-0.01 0-0.01-6e-3 -0.01-0.017 0-0.027 0.065-0.238 0.065-0.286 0-0.019-0.012-0.025-0.023-0.025-0.038 0-0.154 0.094-0.154 0.104zm0.103-0.267c0 0.022 0.016 0.051 0.047 0.051 0.026 0 0.044-0.022 0.044-0.049 0-0.022-0.016-0.051-0.047-0.051-0.028 0-0.044 0.022-0.044 0.049z" fill-rule="nonzero"/>
                </g>
                <g transform="matrix(96.615 0 0 96.615 529.7 136.83)">
                    <path d="m7e-3 -0.224c0 6e-3 0.015 0.017 0.019 0.017 8e-3 0 0.078-0.112 0.109-0.112 7e-3 0 9e-3 5e-3 9e-3 0.015 0 0.065-0.02 0.183-0.078 0.516-3e-3 0.017-9e-3 0.02-0.018 0.02-5e-3 0-0.011-1e-3 -0.017-1e-3 -0.019 0-0.02 0-0.022 0.025-1e-3 0.012 9e-3 0.013 0.02 0.013 0.098 0 0.157 0.015 0.184 0.015 8e-3 0 0.013-6e-3 0.013-0.027 0-9e-3 -9e-3 -0.012-0.026-0.014-0.012-1e-3 -0.029-3e-3 -0.051-5e-3 -0.01-1e-3 -0.014-6e-3 -0.011-0.02l0.032-0.21c1e-3 -6e-3 4e-3 -5e-3 0.01-5e-3 8e-3 0 0.037 7e-3 0.056 7e-3 0.101 0 0.228-0.149 0.228-0.301 0-0.051-0.013-0.094-0.079-0.094-0.043 0-0.08 0.023-0.102 0.058-0.046 0.071-0.067 0.115-0.09 0.17 9e-3 -0.052 0.028-0.171 0.028-0.207 0-0.024-6e-3 -0.034-0.02-0.034-0.096 0-0.194 0.173-0.194 0.174zm0.177 0.173c0-0.028 0.023-0.082 0.055-0.143 0.026-0.048 0.066-0.145 0.116-0.145 0.032 0 0.041 0.028 0.041 0.061 0 0.105-0.085 0.256-0.151 0.256-0.03 0-0.061-5e-3 -0.061-0.029z" fill-rule="nonzero"/>
                </g>
            </g>
        
        
            <g transform="translate(-14.295 -63.009)">
                <g transform="matrix(6.1858 0 0 6.1858 24.938 11.126)" stroke="#000" stroke-width=".81px">
                    <rect x="1" y="3" width="15" height="13" fill="none"/>
                
                
                    <path d="m16 8h4l0.633 0.633c1.515 1.515 2.367 3.571 2.367 5.715v1.652h-7v-8z" fill-rule="nonzero"/>
                </g>
                <g transform="matrix(3.8821 0 0 3.8821 -376.46 -45.326)">
                    <rect x="130.32" y="29.096" width="5.436" height="4.157"/>
                </g>
                <g transform="translate(-194.56 -171.38)">
                    <path d="m268.03 281.48c0.62 1.672 0.958 3.48 0.958 5.366 0 8.535-6.929 15.465-15.464 15.465s-15.465-6.93-15.465-15.465c0-1.886 0.339-3.694 0.958-5.366h29.013z" stroke="#000" stroke-width="5px"/>
                </g>
                <g transform="matrix(6.1858 0 0 6.1858 25.574 1.028)">
                    <circle cx="18.5" cy="18.5" r="2.5" stroke="#000" stroke-width=".81px"/>
                </g>
            </g>
        </g>
    </g>
</svg>

<?xml version="1.0" encoding="UTF-8" standalone="no"?>
<!DOCTYPE svg PUBLIC "-//W3C//DTD SVG 1.1//EN" "http://www.w3.org/Graphics/SVG/1.1/DTD/svg11.dtd">
<svg width="100%" height="100%" viewBox="0 0 476 108" version="1.1" xmlns="http://www.w3.org/2000/svg" xmlns:xlink="http://www.w3.org/1999/xlink" xml:space="preserve" xmlns:serif="http://www.serif.com/" style="fill-rule:evenodd;clip-rule:evenodd;stroke-linecap:round;stroke-linejoin:round;">
    <g transform="matrix(1,0,0,1,-19.0557,-298.711)">
        <g transform="matrix(1,0,0,1,4.72693,334.536)">
            <g transform="matrix(0.993636,0,0,0.993636,-81.4084,-91.7147)">
                <g transform="matrix(96.6148,0,0,96.6148,257.924,136.834)">
                    <path d="M0.017,-0.015C0.017,0.002 0.018,0.006 0.032,0.006C0.055,0.006 0.107,0.003 0.137,0.003C0.167,0.003 0.216,0.006 0.239,0.006C0.251,0.006 0.251,0.001 0.251,-0.014C0.251,-0.026 0.251,-0.03 0.239,-0.03L0.172,-0.03C0.167,-0.03 0.166,-0.032 0.167,-0.036C0.172,-0.08 0.203,-0.298 0.206,-0.314C0.208,-0.322 0.208,-0.322 0.223,-0.322L0.366,-0.322C0.409,-0.322 0.413,-0.318 0.413,-0.311C0.413,-0.308 0.406,-0.266 0.404,-0.253C0.403,-0.243 0.416,-0.243 0.424,-0.243C0.431,-0.243 0.439,-0.245 0.44,-0.252C0.442,-0.265 0.446,-0.299 0.452,-0.331C0.459,-0.369 0.466,-0.399 0.466,-0.409C0.466,-0.417 0.456,-0.418 0.45,-0.418C0.443,-0.418 0.432,-0.418 0.431,-0.409L0.423,-0.366C0.421,-0.357 0.399,-0.355 0.379,-0.355L0.223,-0.355C0.21,-0.355 0.211,-0.355 0.211,-0.359C0.211,-0.361 0.211,-0.364 0.212,-0.368C0.217,-0.403 0.245,-0.611 0.252,-0.635C0.352,-0.635 0.466,-0.632 0.484,-0.629C0.483,-0.617 0.479,-0.563 0.479,-0.558C0.479,-0.547 0.478,-0.541 0.496,-0.541C0.512,-0.541 0.515,-0.544 0.515,-0.554C0.517,-0.623 0.524,-0.671 0.524,-0.679C0.524,-0.693 0.52,-0.693 0.504,-0.693C0.495,-0.693 0.49,-0.692 0.488,-0.678C0.487,-0.669 0.49,-0.668 0.422,-0.668C0.379,-0.668 0.266,-0.665 0.213,-0.665C0.178,-0.665 0.106,-0.668 0.099,-0.668C0.09,-0.668 0.084,-0.664 0.084,-0.651C0.084,-0.634 0.094,-0.633 0.106,-0.633L0.16,-0.633C0.16,-0.633 0.161,-0.63 0.161,-0.626C0.161,-0.55 0.084,-0.07 0.078,-0.03L0.036,-0.03C0.02,-0.03 0.017,-0.029 0.017,-0.015Z" style="fill-rule:nonzero;"/>
                </g>
                <g transform="matrix(96.6148,0,0,96.6148,308.261,136.834)">
                    <path d="M0.022,-0.138C0.022,-0.061 0.069,0.011 0.165,0.011C0.293,0.011 0.397,-0.114 0.397,-0.238C0.397,-0.301 0.364,-0.4 0.256,-0.4C0.121,-0.4 0.022,-0.285 0.022,-0.138ZM0.09,-0.146C0.09,-0.233 0.168,-0.371 0.245,-0.371C0.315,-0.371 0.328,-0.312 0.328,-0.278C0.328,-0.188 0.262,-0.019 0.167,-0.019C0.092,-0.019 0.09,-0.103 0.09,-0.146Z" style="fill-rule:nonzero;"/>
                </g>
                <g transform="matrix(96.6148,0,0,96.6148,348.742,136.834)">
                    <path d="M0.012,-0.287C0.012,-0.275 0.025,-0.267 0.03,-0.267C0.034,-0.267 0.1,-0.331 0.122,-0.331C0.129,-0.331 0.132,-0.326 0.132,-0.316C0.132,-0.25 0.085,-0.059 0.072,-0.005C0.071,0.001 0.073,0.009 0.08,0.009C0.087,0.009 0.108,0.007 0.128,0.005C0.141,0.004 0.144,-0.017 0.146,-0.023C0.152,-0.044 0.169,-0.101 0.19,-0.134C0.239,-0.213 0.331,-0.341 0.366,-0.341C0.378,-0.341 0.385,-0.329 0.385,-0.315C0.385,-0.255 0.305,-0.101 0.305,-0.042C0.305,-0.017 0.318,0.002 0.34,0.002C0.415,0.002 0.503,-0.104 0.503,-0.113C0.503,-0.118 0.491,-0.129 0.488,-0.129C0.486,-0.129 0.426,-0.053 0.398,-0.053C0.385,-0.053 0.382,-0.063 0.382,-0.07C0.382,-0.096 0.459,-0.289 0.459,-0.342C0.459,-0.36 0.452,-0.389 0.405,-0.389C0.327,-0.389 0.248,-0.287 0.163,-0.139C0.184,-0.218 0.211,-0.309 0.211,-0.365C0.211,-0.383 0.197,-0.389 0.187,-0.389C0.126,-0.389 0.012,-0.293 0.012,-0.287L0.012,-0.287Z" style="fill-rule:nonzero;"/>
                </g>
                <g transform="matrix(96.6148,0,0,96.6148,398.499,136.834)">
                    <path d="M0.032,-0.346C0.032,-0.34 0.037,-0.339 0.043,-0.339L0.098,-0.339C0.105,-0.339 0.104,-0.337 0.104,-0.331C0.104,-0.324 0.051,-0.05 0.051,-0.032C0.051,-0.008 0.064,0.005 0.089,0.005C0.151,0.005 0.272,-0.137 0.272,-0.143C0.272,-0.147 0.258,-0.159 0.255,-0.159C0.253,-0.159 0.168,-0.067 0.146,-0.067C0.13,-0.067 0.13,-0.077 0.13,-0.085C0.13,-0.093 0.155,-0.245 0.171,-0.331C0.172,-0.338 0.174,-0.339 0.179,-0.339L0.257,-0.339C0.265,-0.339 0.268,-0.347 0.27,-0.364C0.271,-0.37 0.27,-0.375 0.261,-0.375L0.185,-0.375C0.177,-0.375 0.177,-0.378 0.178,-0.382C0.181,-0.4 0.202,-0.49 0.202,-0.494C0.202,-0.501 0.189,-0.502 0.178,-0.502L0.171,-0.502C0.162,-0.502 0.156,-0.502 0.15,-0.501C0.134,-0.499 0.131,-0.494 0.129,-0.481C0.126,-0.458 0.117,-0.403 0.113,-0.381C0.111,-0.374 0.111,-0.375 0.105,-0.375L0.044,-0.375C0.036,-0.375 0.033,-0.368 0.033,-0.365C0.033,-0.361 0.032,-0.349 0.032,-0.346Z" style="fill-rule:nonzero;"/>
                </g>
                <g transform="matrix(96.6148,0,0,96.6148,425.937,136.834)">
                    <path d="M0.017,-0.061C0.017,-0.027 0.087,0.008 0.148,0.008C0.221,0.008 0.282,-0.046 0.282,-0.107C0.282,-0.219 0.137,-0.226 0.137,-0.317C0.137,-0.364 0.174,-0.377 0.203,-0.377C0.218,-0.377 0.224,-0.366 0.232,-0.352C0.242,-0.334 0.257,-0.315 0.283,-0.315C0.294,-0.315 0.304,-0.322 0.304,-0.335C0.304,-0.347 0.294,-0.402 0.204,-0.402C0.132,-0.402 0.07,-0.348 0.07,-0.283C0.07,-0.197 0.214,-0.152 0.214,-0.094C0.214,-0.051 0.183,-0.024 0.146,-0.024C0.123,-0.024 0.113,-0.04 0.089,-0.064C0.076,-0.077 0.067,-0.089 0.044,-0.089C0.035,-0.089 0.017,-0.079 0.017,-0.061Z" style="fill-rule:nonzero;"/>
                </g>
                <g transform="matrix(96.6148,0,0,96.6148,458.4,136.834)">
                    <path d="M0.022,-0.006C0.022,0 0.025,0.005 0.033,0.005C0.034,0.005 0.09,0.004 0.093,-0.006L0.114,-0.09C0.122,-0.123 0.146,-0.16 0.168,-0.197C0.209,-0.265 0.26,-0.343 0.306,-0.343C0.326,-0.343 0.337,-0.328 0.337,-0.307C0.337,-0.256 0.264,-0.073 0.264,-0.038C0.264,-0.013 0.284,0.003 0.308,0.003C0.386,0.003 0.466,-0.114 0.466,-0.122C0.466,-0.127 0.456,-0.135 0.451,-0.135C0.446,-0.135 0.38,-0.048 0.356,-0.048C0.344,-0.048 0.338,-0.057 0.338,-0.067C0.338,-0.094 0.405,-0.269 0.405,-0.335C0.405,-0.371 0.376,-0.386 0.343,-0.386C0.283,-0.386 0.246,-0.352 0.217,-0.317C0.168,-0.258 0.13,-0.185 0.112,-0.148C0.141,-0.29 0.195,-0.568 0.2,-0.66C0.2,-0.669 0.2,-0.678 0.191,-0.678C0.166,-0.678 0.075,-0.658 0.035,-0.644C0.028,-0.641 0.026,-0.629 0.026,-0.621C0.026,-0.616 0.027,-0.608 0.032,-0.608C0.038,-0.608 0.098,-0.634 0.116,-0.634C0.119,-0.634 0.121,-0.627 0.12,-0.619C0.086,-0.27 0.022,-0.018 0.022,-0.006Z" style="fill-rule:nonzero;"/>
                </g>
                <g transform="matrix(96.6148,0,0,96.6148,503.616,136.834)">
                    <path d="M0.022,-0.282C0.022,-0.275 0.03,-0.266 0.037,-0.266C0.046,-0.266 0.095,-0.325 0.119,-0.325C0.126,-0.325 0.128,-0.32 0.128,-0.31C0.128,-0.25 0.057,-0.064 0.057,-0.012C0.057,0.006 0.074,0.009 0.084,0.009C0.117,0.009 0.238,-0.09 0.238,-0.107C0.238,-0.112 0.229,-0.122 0.223,-0.122C0.216,-0.122 0.161,-0.058 0.144,-0.058C0.134,-0.058 0.134,-0.064 0.134,-0.075C0.134,-0.102 0.199,-0.313 0.199,-0.361C0.199,-0.38 0.187,-0.386 0.176,-0.386C0.138,-0.386 0.022,-0.292 0.022,-0.282ZM0.125,-0.549C0.125,-0.527 0.141,-0.498 0.172,-0.498C0.198,-0.498 0.216,-0.52 0.216,-0.547C0.216,-0.569 0.2,-0.598 0.169,-0.598C0.141,-0.598 0.125,-0.576 0.125,-0.549Z" style="fill-rule:nonzero;"/>
                </g>
                <g transform="matrix(96.6148,0,0,96.6148,529.702,136.834)">
                    <path d="M0.007,-0.224C0.007,-0.218 0.022,-0.207 0.026,-0.207C0.034,-0.207 0.104,-0.319 0.135,-0.319C0.142,-0.319 0.144,-0.314 0.144,-0.304C0.144,-0.239 0.124,-0.121 0.066,0.212C0.063,0.229 0.057,0.232 0.048,0.232C0.043,0.232 0.037,0.231 0.031,0.231C0.012,0.231 0.011,0.231 0.009,0.256C0.008,0.268 0.018,0.269 0.029,0.269C0.127,0.269 0.186,0.284 0.213,0.284C0.221,0.284 0.226,0.278 0.226,0.257C0.226,0.248 0.217,0.245 0.2,0.243C0.188,0.242 0.171,0.24 0.149,0.238C0.139,0.237 0.135,0.232 0.138,0.218L0.17,0.008C0.171,0.002 0.174,0.003 0.18,0.003C0.188,0.003 0.217,0.01 0.236,0.01C0.337,0.01 0.464,-0.139 0.464,-0.291C0.464,-0.342 0.451,-0.385 0.385,-0.385C0.342,-0.385 0.305,-0.362 0.283,-0.327C0.237,-0.256 0.216,-0.212 0.193,-0.157C0.202,-0.209 0.221,-0.328 0.221,-0.364C0.221,-0.388 0.215,-0.398 0.201,-0.398C0.105,-0.398 0.007,-0.225 0.007,-0.224ZM0.184,-0.051C0.184,-0.079 0.207,-0.133 0.239,-0.194C0.265,-0.242 0.305,-0.339 0.355,-0.339C0.387,-0.339 0.396,-0.311 0.396,-0.278C0.396,-0.173 0.311,-0.022 0.245,-0.022C0.215,-0.022 0.184,-0.027 0.184,-0.051Z" style="fill-rule:nonzero;"/>
                </g>
            </g>
        </g>
        <g transform="matrix(1,0,0,1,4.72693,334.536)">
            <g transform="matrix(1,0,0,1,-14.2948,-63.0087)">
                <g transform="matrix(6.18575,0,0,6.18575,24.9378,11.1264)">
                    <rect x="1" y="3" width="15" height="13" style="fill:none;stroke:black;stroke-width:0.81px;"/>
                </g>
                <g transform="matrix(6.18575,0,0,6.18575,24.9378,11.1264)">
                    <path d="M16,8L20,8C20,8 20.263,8.263 20.633,8.633C22.148,10.148 23,12.204 23,14.348L23,16L16,16L16,8Z" style="fill-rule:nonzero;stroke:black;stroke-width:0.81px;"/>
                </g>
                <g transform="matrix(3.8821,0,0,3.8821,-376.461,-45.3265)">
                    <rect x="130.321" y="29.096" width="5.436" height="4.157"/>
                </g>
                <g transform="matrix(1,0,0,1,-194.561,-171.385)">
                    <path d="M268.027,281.483C268.647,283.155 268.985,284.963 268.985,286.849C268.985,295.384 262.056,302.314 253.521,302.314C244.986,302.314 238.056,295.384 238.056,286.849C238.056,284.963 238.395,283.155 239.014,281.483L268.027,281.483Z" style="stroke:black;stroke-width:5px;"/>
                </g>
                <g transform="matrix(6.18575,0,0,6.18575,25.5743,1.02796)">
                    <circle cx="18.5" cy="18.5" r="2.5" style="stroke:black;stroke-width:0.81px;"/>
                </g>
            </g>
        </g>
    </g>
</svg>
